src/img/svg/icon-car.svg

<svg width="36" height="31" viewBox="0 0 36 31" fill="none" xmlns="http://www.w3.org/2000/svg">
<path d="M35 13.2159H36V12.9208L35.8397 12.6729L35 13.2159ZM1 13.2159L0.160271 12.6729L0 12.9208V13.2159H1ZM6.16306 5.23155L5.32333 4.68854L6.16306 5.23155ZM29.8369 5.23155L30.6767 4.68854L29.8369 5.23155ZM8.28571 24.4978V23.4978H7.28571V24.4978H8.28571ZM27.7143 24.4978H28.7143V23.4978H27.7143V24.4978ZM34 13.2159V26.7527H36V13.2159H34ZM1.83973 13.7589L7.00279 5.77455L5.32333 4.68854L0.160271 12.6729L1.83973 13.7589ZM12.4094 2.94897H23.5906V0.948975H12.4094V2.94897ZM28.9972 5.77455L34.1603 13.7589L35.8397 12.6729L30.6767 4.68854L28.9972 5.77455ZM5.85714 28.0075H3.42857V30.0075H5.85714V28.0075ZM7.28571 24.4978V26.7527H9.28571V24.4978H7.28571ZM32.5714 28.0075H30.1429V30.0075H32.5714V28.0075ZM28.7143 26.7527V24.4978H26.7143V26.7527H28.7143ZM27.7143 23.4978H8.28571V25.4978H27.7143V23.4978ZM2 26.7527V13.2159H0V26.7527H2ZM30.1429 28.0075C29.2827 28.0075 28.7143 27.3771 28.7143 26.7527H26.7143C26.7143 28.6189 28.3205 30.0075 30.1429 30.0075V28.0075ZM5.85714 30.0075C7.67951 30.0075 9.28571 28.6189 9.28571 26.7527H7.28571C7.28571 27.3771 6.7173 28.0075 5.85714 28.0075V30.0075ZM3.42857 28.0075C2.56842 28.0075 2 27.3771 2 26.7527H0C0 28.6189 1.6062 30.0075 3.42857 30.0075V28.0075ZM23.5906 2.94897C25.8321 2.94897 27.8763 4.04118 28.9972 5.77455L30.6767 4.68854C29.1637 2.34874 26.466 0.948975 23.5906 0.948975V2.94897ZM7.00279 5.77455C8.12366 4.04118 10.1679 2.94897 12.4094 2.94897V0.948975C9.53402 0.948975 6.83635 2.34874 5.32333 4.68854L7.00279 5.77455ZM34 26.7527C34 27.3771 33.4316 28.0075 32.5714 28.0075V30.0075C34.3938 30.0075 36 28.6189 36 26.7527H34ZM4.64286 20.988H11.9286V18.988H4.64286V20.988ZM31.3571 18.988H24.0714V20.988H31.3571V18.988ZM7.07143 14.2234H28.9286V12.2234H7.07143V14.2234Z" fill="#0085FF"/>
</svg>

<svg xmlns="http://www.w3.org/2000/svg" width="36" height="31" fill="none"><path fill="#0085FF" d="M35 13.216h1v-.295l-.16-.248-.84.543zm-34 0l-.84-.543-.16.248v.295h1zm5.163-7.984l-.84-.543.84.543zm23.674 0l.84-.543-.84.543zM8.286 24.498v-1h-1v1h1zm19.428 0h1v-1h-1v1zM34 13.216v13.537h2V13.216h-2zm-32.16.543l5.163-7.984-1.68-1.086L.16 12.673l1.68 1.086zm10.57-10.81h11.18v-2H12.41v2zm16.587 2.826l5.163 7.984 1.68-1.086-5.163-7.984-1.68 1.086zM5.857 28.008H3.43v2h2.428v-2zm1.429-3.51v2.255h2v-2.255h-2zm25.285 3.51h-2.428v2h2.428v-2zm-3.857-1.255v-2.255h-2v2.255h2zm-1-3.255H8.286v2h19.428v-2zM2 26.753V13.216H0v13.537h2zm28.143 1.255c-.86 0-1.429-.63-1.429-1.255h-2c0 1.866 1.607 3.255 3.429 3.255v-2zm-24.286 2c1.823 0 3.429-1.39 3.429-3.255h-2c0 .624-.569 1.255-1.429 1.255v2zm-2.428-2c-.86 0-1.429-.63-1.429-1.255H0c0 1.866 1.606 3.255 3.429 3.255v-2zM23.59 2.948c2.241 0 4.285 1.092 5.406 2.826l1.68-1.086c-1.513-2.34-4.211-3.74-7.086-3.74v2zM7.003 5.775c1.12-1.734 3.165-2.826 5.406-2.826v-2c-2.875 0-5.573 1.4-7.086 3.74l1.68 1.086zM34 26.753c0 .624-.568 1.255-1.429 1.255v2c1.823 0 3.429-1.39 3.429-3.255h-2zM4.643 20.988h7.286v-2H4.643v2zm26.714-2h-7.286v2h7.286v-2zM7.071 14.223H28.93v-2H7.07v2z"/></svg>
